X: 152
T: Kenny from Lewis
C: Bert Murray
R: reel
B: Bert Murray's "Bon Accord Collection" 1999 p.15
Z: 2011 John Chambers <jc:trillian.mit.edu>
M: 4/4
L: 1/8
K: D
vAG |\
FDCD A,DCD | FDFA (B/c/d) (AG) | FDCD A,DFA | GFED E2(AG) |
FDCD A,DCD | FDFA B2(Bc) | d2(dB) AFED | B,DDE D2 ||
(FG) |\
AFDF Adcd | BGDG Bdcd | AFDF Adcd | BAGF E2(FG) |
AFDF Adcd | FDFA B2(Bc) | d2(dB) AFED | B,DDE D2 |]

%%sep 2 1 500

